app/assets/icons/eye.svg

<svg height="10" viewBox="0 0 16 10" width="16" xmlns="http://www.w3.org/2000/svg">
  <path
    d="m15.4569 4.7975c-.0219-.04937-.5513-1.22375-1.7282-2.40063-1.5681-1.56812-3.5487-2.39687-5.72871-2.39687-2.18 0-4.16062.82875-5.72875 2.39687-1.17687 1.17688-1.708746 2.35313-1.728121 2.40063-.028429.06394-.043119.13314-.043119.20312s.01469.13918.043119.20313c.021875.04937.551251 1.22313 1.728121 2.4 1.56813 1.5675 3.54875 2.39625 5.72875 2.39625 2.18001 0 4.16061-.82875 5.72871-2.39625 1.1769-1.17687 1.7063-2.35063 1.7282-2.4.0284-.06395.0431-.13315.0431-.20313s-.0147-.13918-.0431-.20312zm-7.45691 2.7025c-.49445 0-.9778-.14662-1.38892-.42133-.41112-.2747-.73156-.66515-.92077-1.12196-.18922-.45682-.23873-.95948-.14227-1.44444.09646-.48495.33457-.93041.6842-1.28004s.79509-.58773 1.28004-.68419c.48495-.09647.98762-.04696 1.44443.14226.45682.18922.84726.50965 1.122.92077.2747.41113.4213.89448.4213 1.38893 0 .66304-.2634 1.29893-.73224 1.76777s-1.10472.73223-1.76777.73223z"
    fill="currentColor" />
</svg>

<svg width="16" height="10" viewBox="0 0 16 10" fill="none" xmlns="http://www.w3.org/2000/svg">
  <path
    d="M15.4569 4.7975C15.435 4.74813 14.9056 3.57375 13.7287 2.39687C12.1606 0.82875 10.18 0 7.99999 0C5.81999 0 3.83937 0.82875 2.27124 2.39687C1.09437 3.57375 0.562494 4.75 0.543119 4.7975C0.51469 4.86144 0.5 4.93064 0.5 5.00062C0.5 5.0706 0.51469 5.1398 0.543119 5.20375C0.564994 5.25312 1.09437 6.42688 2.27124 7.60375C3.83937 9.17125 5.81999 10 7.99999 10C10.18 10 12.1606 9.17125 13.7287 7.60375C14.9056 6.42688 15.435 5.25312 15.4569 5.20375C15.4853 5.1398 15.5 5.0706 15.5 5.00062C15.5 4.93064 15.4853 4.86144 15.4569 4.7975ZM7.99999 7.5C7.50554 7.5 7.02219 7.35338 6.61107 7.07867C6.19995 6.80397 5.87951 6.41352 5.6903 5.95671C5.50108 5.49989 5.45157 4.99723 5.54803 4.51227C5.64449 4.02732 5.8826 3.58186 6.23223 3.23223C6.58186 2.8826 7.02732 2.6445 7.51227 2.54804C7.99722 2.45157 8.49989 2.50108 8.9567 2.6903C9.41352 2.87952 9.80396 3.19995 10.0787 3.61107C10.3534 4.0222 10.5 4.50555 10.5 5C10.5 5.66304 10.2366 6.29893 9.76776 6.76777C9.29892 7.23661 8.66304 7.5 7.99999 7.5Z"
    fill="#252623" />
</svg>
